papirus/22x22/apps/airvpn.svg

<svg height="22" viewBox="0 0 22 22" width="22" xmlns="http://www.w3.org/2000/svg"><g transform="translate(-1.0000024 -1)"><circle cx="11.999999" cy="11.999996" fill="#006680" r="9.9999962"/><path d="m10.844911 8.4999995c-1.5101543 0-2.7343758 1.1731821-2.7343758 2.6203935.0021.0661.00707.131183.014663.195198-.1244203-.02395-.2545051-.04303-.390823-.05638-1.5101539 0-2.734375 1.173182-2.734375 2.620395 0 1.447212 1.2242211 2.620394 2.734375 2.620394h8.5312488c1.510154 0 2.734376-1.173182 2.734376-2.620394 0-1.447213-1.224222-2.620395-2.734376-2.620395-.301219.0089-.581996.06908-.839004.170132-.382825-.464658-.975841-.762955-1.641587-.762955-.08463.0045-.165982.007-.244384.01375-.218559-1.2375092-1.342209-2.1800034-2.695735-2.1800034z" opacity=".2"/><path d="m10.844911 7.9999995c-1.5101543 0-2.7343758 1.1731821-2.7343758 2.6203935.0021.0661.00707.131183.014663.195198-.1244203-.02395-.2545051-.04303-.390823-.05638-1.5101539 0-2.734375 1.173182-2.734375 2.620395 0 1.447212 1.2242211 2.620394 2.734375 2.620394h8.5312488c1.510154 0 2.734376-1.173182 2.734376-2.620394 0-1.447213-1.224222-2.620395-2.734376-2.620395-.301219.0089-.581996.06908-.839004.170132-.382825-.464658-.975841-.762955-1.641587-.762955-.08463.0045-.165982.007-.244384.01375-.218559-1.2375092-1.342209-2.1800034-2.695735-2.1800034z" fill="#fff"/><path d="m11.999999 22a9.9999958 9.9999958 0 0 1 -9.9296836-8.925796 9.9999958 9.4999875 0 0 0  9.9296836 8.425796 9.9999958 9.4999875 0 0 0  9.960933-8.723646 9.9999958 9.9999958 0 0 1 -9.960933 9.223646zm9.960933-9.223646a9.9999958 9.9999958 0 0 0  .03906-.77635 9.9999958 9.4999875 0 0 1 -.03906.77635zm-19.8906166.29785a9.9999958 9.4999875 0 0 1 -.024414-.19625 9.9999958 9.9999958 0 0 0  .024414.19625zm-.024414-.19625a9.9999958 9.9999958 0 0 1 -.045898-.87795 9.9999958 9.4999875 0 0 0  .045898.87795z" opacity=".3"/><path d="m11.999999 2.0000085a9.9999958 9.9999958 0 0 0 -9.9296836 8.9257965 9.9999958 9.4999875 0 0 1  9.9296836-8.4257967 9.9999958 9.4999875 0 0 1  9.960933 8.7236467 9.9999958 9.9999958 0 0 0 -9.960933-9.2236465zm9.960933 9.2236465a9.9999958 9.9999958 0 0 1  .03907.776349 9.9999958 9.4999875 0 0 0 -.03907-.776349zm-19.8906166-.29785a9.9999958 9.4999875 0 0 0 -.024414.19625 9.9999958 9.9999958 0 0 1  .024414-.19625zm-.024414.19625a9.9999958 9.9999958 0 0 0 -.045898.877949 9.9999958 9.4999875 0 0 1  .045898-.877949z" fill="#fff" opacity=".2"/></g></svg>

<?xml version="1.0" encoding="UTF-8" standalone="no"?>
<svg
   xmlns:dc="http://purl.org/dc/elements/1.1/"
   xmlns:cc="http://creativecommons.org/ns#"
   xmlns:rdf="http://www.w3.org/1999/02/22-rdf-syntax-ns#"
   xmlns:svg="http://www.w3.org/2000/svg"
   xmlns="http://www.w3.org/2000/svg"
   xmlns:sodipodi="http://sodipodi.sourceforge.net/DTD/sodipodi-0.dtd"
   xmlns:inkscape="http://www.inkscape.org/namespaces/inkscape"
   version="1.1"
   id="svg4261"
   viewBox="0 0 22 22"
   height="22"
   width="22"
   inkscape:version="0.91 r13725"
   sodipodi:docname="airvpn.svg">
  <sodipodi:namedview
     pagecolor="#ffffff"
     bordercolor="#666666"
     borderopacity="1"
     objecttolerance="10"
     gridtolerance="10"
     guidetolerance="10"
     inkscape:pageopacity="0"
     inkscape:pageshadow="2"
     inkscape:window-width="1600"
     inkscape:window-height="849"
     id="namedview13"
     showgrid="false"
     inkscape:zoom="4.04"
     inkscape:cx="-7.6304361"
     inkscape:cy="-16"
     inkscape:window-x="0"
     inkscape:window-y="0"
     inkscape:window-maximized="1"
     inkscape:current-layer="svg4261" />
  <defs
     id="defs4263" />
  <metadata
     id="metadata4266">
    <rdf:RDF>
      <cc:Work
         rdf:about="">
        <dc:format>image/svg+xml</dc:format>
        <dc:type
           rdf:resource="http://purl.org/dc/dcmitype/StillImage" />
        <dc:title></dc:title>
      </cc:Work>
    </rdf:RDF>
  </metadata>
  <g
     id="g4151"
     transform="translate(-1.0000024,-1)">
    <circle
       r="9.9999962"
       cy="11.999996"
       cx="11.999999"
       id="path4136"
       style="opacity:1;fill:#006680;fill-opacity:1;stroke:none;stroke-width:0.2;stroke-miterlimit:4;stroke-dasharray:none;stroke-opacity:1" />
    <path
       inkscape:connector-curvature="0"
       id="path4149"
       d="m 10.844911,8.4999995 c -1.5101543,0 -2.7343758,1.1731821 -2.7343758,2.6203935 0.0021,0.0661 0.00707,0.131183 0.014663,0.195198 -0.1244203,-0.02395 -0.2545051,-0.04303 -0.390823,-0.05638 -1.5101539,0 -2.734375,1.173182 -2.734375,2.620395 0,1.447212 1.2242211,2.620394 2.734375,2.620394 l 8.5312488,0 C 17.775778,16.5 19,15.326818 19,13.879606 c 0,-1.447213 -1.224222,-2.620395 -2.734376,-2.620395 -0.301219,0.0089 -0.581996,0.06908 -0.839004,0.170132 -0.382825,-0.464658 -0.975841,-0.762955 -1.641587,-0.762955 -0.08463,0.0045 -0.165982,0.007 -0.244384,0.01375 C 13.32209,9.4426288 12.19844,8.5001346 10.844914,8.5001346 Z"
       style="opacity:0.2;fill:#000000;fill-opacity:1;stroke:none;stroke-width:2;stroke-miterlimit:4;stroke-dasharray:none;stroke-opacity:1" />
    <path
       style="opacity:1;fill:#ffffff;fill-opacity:1;stroke:none;stroke-width:2;stroke-miterlimit:4;stroke-dasharray:none;stroke-opacity:1"
       d="m 10.844911,7.9999995 c -1.5101543,0 -2.7343758,1.1731821 -2.7343758,2.6203935 0.0021,0.0661 0.00707,0.131183 0.014663,0.195198 -0.1244203,-0.02395 -0.2545051,-0.04303 -0.390823,-0.05638 -1.5101539,0 -2.734375,1.173182 -2.734375,2.620395 0,1.447212 1.2242211,2.620394 2.734375,2.620394 l 8.5312488,0 C 17.775778,16 19,14.826818 19,13.379606 c 0,-1.447213 -1.224222,-2.620395 -2.734376,-2.620395 -0.301219,0.0089 -0.581996,0.06908 -0.839004,0.170132 -0.382825,-0.464658 -0.975841,-0.762955 -1.641587,-0.762955 -0.08463,0.0045 -0.165982,0.007 -0.244384,0.01375 C 13.32209,8.9426288 12.19844,8.0001346 10.844914,8.0001346 Z"
       id="path4163"
       inkscape:connector-curvature="0" />
    <path
       id="circle4166"
       d="M 11.999999,22 A 9.9999958,9.9999958 0 0 1 2.0703154,13.074204 9.9999958,9.4999875 0 0 0 11.999999,21.5 9.9999958,9.4999875 0 0 0 21.960932,12.776354 9.9999958,9.9999958 0 0 1 11.999999,22 Z m 9.960933,-9.223646 a 9.9999958,9.9999958 0 0 0 0.03906,-0.77635 9.9999958,9.4999875 0 0 1 -0.03906,0.77635 z m -19.8906166,0.29785 a 9.9999958,9.4999875 0 0 1 -0.024414,-0.19625 9.9999958,9.9999958 0 0 0 0.024414,0.19625 z m -0.024414,-0.19625 a 9.9999958,9.9999958 0 0 1 -0.045898,-0.87795 9.9999958,9.4999875 0 0 0 0.045898,0.87795 z"
       style="opacity:0.3;fill:#000000;fill-opacity:1;stroke:none;stroke-width:0.2;stroke-miterlimit:4;stroke-dasharray:none;stroke-opacity:1"
       inkscape:connector-curvature="0" />
    <path
       style="opacity:0.2;fill:#ffffff;fill-opacity:1;stroke:none;stroke-width:0.2;stroke-miterlimit:4;stroke-dasharray:none;stroke-opacity:1"
       d="M 11.999999,2.0000085 A 9.9999958,9.9999958 0 0 0 2.0703154,10.925805 9.9999958,9.4999875 0 0 1 11.999999,2.5000083 9.9999958,9.4999875 0 0 1 21.960932,11.223655 9.9999958,9.9999958 0 0 0 11.999999,2.0000085 Z m 9.960933,9.2236465 a 9.9999958,9.9999958 0 0 1 0.03907,0.776349 9.9999958,9.4999875 0 0 0 -0.03907,-0.776349 z M 2.0703154,10.925805 a 9.9999958,9.4999875 0 0 0 -0.024414,0.19625 9.9999958,9.9999958 0 0 1 0.024414,-0.19625 z m -0.024414,0.19625 a 9.9999958,9.9999958 0 0 0 -0.045898,0.877949 9.9999958,9.4999875 0 0 1 0.045898,-0.877949 z"
       id="path4174"
       inkscape:connector-curvature="0" />
  </g>
</svg>
